!!!SOCIAL_FUNCTION:	arapaho war song
!!!PDT:	1936
!!!OTL: No_16_On_My_Enemy's_Ground.krn
!!!REG: Oklahoma and Montana
!!!LANG: Tone
!!!LING_GROUP: Algonquin
**kern	**kern
*staff2	*staff1
=1-	=1-
*clefF4	*clefF4
*k[f#]	*k[f#]
*M2/4	*M2/4
8GG/L	16d\LL
.	16d\
8GG/J	16d\
.	16d\JJ
8GG/L	8A\L
8GG/J	8A\J
=2	=2
2r	4.d\
.	8r
=3	=3
2r	16d\LL
.	16d\
.	16d\
.	16d\JJ
.	8A\L
.	8A\J
=4	=4
2r	4.A\
.	8r
=5	=5
2r	8A\L
.	8A\J
.	8B\L
.	8A\J
=6	=6
2r	8A\L
.	8G\J
.	4D\
=7	=7
2r	8D\L
.	8G\J
.	8G\L
.	8A\J
=8	=8
*M5/8	*M5/8
3...r	8G\L
.	8A\
.	8G\
.	8D\
.	8D\J
=9	=9
*M2/4	*M2/4
2r	4..D\
.	16D\
=10	=10
*M3/4	*M3/4
2.r	2D\
.	8.r
.	16G\
=11	=11
*M5/8	*M5/8
3...r	8A\L
.	8B\
.	16A\L
.	16B\J
.	8G\
.	8G\J
=12	=12
*M3/4	*M3/4
2.r	2A\
.	4r
=13	=13
*M7/8	*M7/8
2..r	4B\
.	8G\L
.	8B\
.	8G\J
.	4D\
=14	=14
*M2/4	*M2/4
2r	8D\L
.	8G\J
.	8G\L
.	8A\J
=15	=15
*M5/8	*M5/8
3...r	8G\L
.	8A\
.	8G\
.	8D\
.	8D\J
=16	=16
*M2/4	*M2/4
2r	4..D\
.	16D\
=17	=17
2r	4D\
.	8D\
.	8r
==	==
*-	*-
